public/img/heart-icon.svg

<svg height="103" viewBox="0 0 106 103" width="106" xmlns="http://www.w3.org/2000/svg"><g fill="none" fill-rule="evenodd" transform="translate(-993 -1668)"><path d="m0 1355h1200v929h-1200z" fill="#f5f5f5"/><g fill="#4a4a4a" fill-rule="nonzero" transform="matrix(.94551858 .32556815 -.32556815 .94551858 1006.231247 1660)"><path d="m106.823138 29.5208191c-1.561887-17.1071672-13.7297917-29.51877132-28.9576784-29.51877132-10.1450651 0-19.434076 5.43276451-24.6609452 14.13993172-5.1795393-8.8197952-14.087853-14.1419795-24.0703501-14.1419795-15.2258289 0-27.39579136 12.4116041-28.95562084 29.5187713-.12346935.7556314-.6296937 4.7324232.90955756 11.2177475 2.21833268 9.3542662 7.34231078 17.8627986 14.81426438 24.6l37.2774551 33.6634812 37.917438-33.6614334c7.4719536-6.7392492 12.5959315-15.2457338 14.8142645-24.6020478 1.539251-6.4832765 1.033027-10.4600683.911615-11.2156997zm-4.918196 10.2778157c-2.0248969 8.5433447-6.7187901 16.3269625-13.5610501 22.4948806l-35.1393775 31.1979522-34.5364355-31.1897611c-6.8546069-6.1802048-11.54644223-13.9617748-13.57339742-22.5051195-1.45693835-6.1372013-.85811199-9.6040955-.85605417-9.6266211l.03086734-.206826c1.33758464-14.9877133 11.79338095-25.86757676 24.86466965-25.86757676 9.6450142 0 18.1355899 5.89761092 22.1648065 15.38907846l1.8952545 4.4703072 1.8952546-4.4703072c3.965424-9.346075 12.904605-15.38703068 22.7780375-15.38703068 13.0692309 0 23.5270846 10.87986348 24.8914216 26.06211608.004115.0327645.602942 3.5017064-.853997 9.6389078z"/><path d="m32 13c-11.028 0-20 8.972-20 20 0 1.106.894 2 2 2s2-.894 2-2c0-8.822 7.178-16 16-16 1.106 0 2-.894 2-2s-.896-2-2-2z"/></g></g></svg>

<?xml version="1.0" encoding="UTF-8"?>
<svg width="106px" height="103px" viewBox="0 0 106 103" version="1.1" xmlns="http://www.w3.org/2000/svg" xmlns:xlink="http://www.w3.org/1999/xlink">
    <!-- Generator: Sketch 49.3 (51167) - http://www.bohemiancoding.com/sketch -->
    <title>like</title>
    <desc>Created with Sketch.</desc>
    <defs></defs>
    <g id="Page-1" stroke="none" stroke-width="1" fill="none" fill-rule="evenodd">
        <g id="Home" transform="translate(-993.000000, -1668.000000)">
            <rect id="Rectangle-7" fill="#F5F5F5" x="0" y="1355" width="1200" height="929"></rect>
            <g id="like" transform="translate(1040.700867, 1724.221066) rotate(19.000000) translate(-1040.700867, -1724.221066) translate(987.200867, 1674.721066)" fill="#4A4A4A" fill-rule="nonzero">
                <path d="M106.823138,29.5208191 C105.261251,12.4136519 93.0933463,0.00204778157 77.8654596,0.00204778157 C67.7203945,0.00204778157 58.4313836,5.43481229 53.2045144,14.1419795 C48.0249751,5.3221843 39.1166614,0 29.1341643,0 C13.9083354,0 1.73837294,12.4116041 0.178543458,29.5187713 C0.0550741057,30.2744027 -0.451150237,34.2511945 1.08810102,40.7365188 C3.3064337,50.090785 8.4304118,58.5993174 15.9023654,65.3365188 L53.1798205,99 L91.0972585,65.3385666 C98.5692121,58.5993174 103.69319,50.0928328 105.911523,40.7365188 C107.450774,34.2532423 106.94455,30.2764505 106.823138,29.5208191 Z M101.904942,39.7986348 C99.8800451,48.3419795 95.1861519,56.1255973 88.3438919,62.2935154 L53.2045144,93.4914676 L18.6680789,62.3017065 C11.813472,56.1215017 7.12163667,48.3399317 5.09468148,39.796587 C3.63774313,33.6593857 4.23656949,30.1924915 4.23862731,30.1699659 L4.26949465,29.9631399 C5.60707929,14.9754266 16.0628756,4.09556314 29.1341643,4.09556314 C38.7791785,4.09556314 47.2697542,9.99317406 51.2989708,19.4846416 L53.1942253,23.9549488 L55.0894799,19.4846416 C59.0549039,10.1385666 67.9940849,4.09761092 77.8675174,4.09761092 C90.9367483,4.09761092 101.394602,14.9774744 102.758939,30.159727 C102.763054,30.1924915 103.361881,33.6614334 101.904942,39.7986348 Z" id="Shape"></path>
                <path d="M32,13 C20.972,13 12,21.972 12,33 C12,34.106 12.894,35 14,35 C15.106,35 16,34.106 16,33 C16,24.178 23.178,17 32,17 C33.106,17 34,16.106 34,15 C34,13.894 33.104,13 32,13 Z" id="Shape"></path>
            </g>
        </g>
    </g>
</svg>
